svgs/steam_link.svg

<svg width="192" height="192" viewBox="0 0 192 192" fill="none" xmlns="http://www.w3.org/2000/svg"><path d="M132.467 42H59.155c-10.262 0-19.786 6.074-23.5 15.985-3.139 8.374-7.165 20.181-10.025 32.408-2.824 12.071-4.68 25.221-2.977 36.004 1.276 8.082 7.519 13.349 12.866 16.529 5.543 3.296 11.594 5.237 15.012 6.176 5.005 1.375 9.714-1.817 10.875-6.402l6.713-26.513a3 3 0 0 1 2.908-2.264h50.445a3 3 0 0 1 2.912 2.277l6.554 26.412c1.159 4.669 5.986 7.882 11.036 6.397 3.367-.99 9.227-2.991 14.582-6.302 5.175-3.199 11.168-8.429 12.412-16.31 1.703-10.783-.152-23.932-2.977-36.004-2.86-12.227-6.886-24.034-10.024-32.408C152.252 48.074 142.728 42 132.467 42Z" stroke="#000" stroke-width="12" stroke-linejoin="round"/><path d="M66.5 95C77.822 95 87 85.822 87 74.5S77.822 54 66.5 54 46 63.178 46 74.5 55.178 95 66.5 95Zm59 0c11.322 0 20.5-9.178 20.5-20.5S136.822 54 125.5 54 105 63.178 105 74.5 114.178 95 125.5 95Z" fill="#000"/></svg>

<?xml version="1.0" encoding="UTF-8" standalone="no"?><svg xmlns:android="http://schemas.android.com/apk/res/android" height="192" width="192" xmlns="http://www.w3.org/2000/svg">
  <path d="M132.47,42H59.15C48.89,42 39.37,48.07 35.65,57.99C32.52,66.36 28.49,78.17 25.63,90.39C22.81,102.46 20.95,115.61 22.65,126.4C23.93,134.48 30.17,139.75 35.52,142.93C41.06,146.22 47.11,148.16 50.53,149.1C55.54,150.48 60.25,147.29 61.41,142.7L68.12,116.19C68.46,114.86 69.65,113.92 71.03,113.92H121.47C122.85,113.92 124.05,114.86 124.38,116.2L130.94,142.61C132.1,147.28 136.92,150.49 141.97,149.01C145.34,148.02 151.2,146.02 156.56,142.71C161.73,139.51 167.72,134.28 168.97,126.4C170.67,115.61 168.82,102.46 165.99,90.39C163.13,78.17 159.1,66.36 155.97,57.99C152.25,48.07 142.73,42 132.47,42Z" fill="#000000" fill-opacity="0.0" stroke="#000000" stroke-linejoin="round" stroke-width="12"/>
  <path d="M66.5,95C77.82,95 87,85.82 87,74.5C87,63.18 77.82,54 66.5,54C55.18,54 46,63.18 46,74.5C46,85.82 55.18,95 66.5,95Z" fill="#000000"/>
  <path d="M125.5,95C136.82,95 146,85.82 146,74.5C146,63.18 136.82,54 125.5,54C114.18,54 105,63.18 105,74.5C105,85.82 114.18,95 125.5,95Z" fill="#000000"/>
</svg>
